X:1
T:The Saving Power
T:The Saving Power
T:Edyth Hillary Hay
T:Etta Swihart Cripe, 1922
T:Public Domain Courtesy of the Cyber Hymnal™
T:Public Domain Courtesy of the Cyber Hymnal™
C:Edyth Hillary Hay
Z:Public Domain
Z:Courtesy of the Cyber Hymnal™
%%score ( 1 2 ) ( 3 4 )
L:1/8
Q:1/4=95
M:4/4
K:G
V:1 treble 
V:2 treble 
V:3 bass 
V:4 bass 
V:1
 [B,D][B,G] | [DB]2 [DB][Ec] [DB]2 [DB][DA] | [EG]2 [EG][EA] [EG]2 [DF][CE] | %3
w: 1.~On the|earth, long a- go, dwelt the|Sav- ior of men As a|
w: 2.~He in-|vit- ed the poor and the|halt and the blind; “Who- so-|
w: 3.~Some glad|day we shall dwell with the|meek Naz- a- rene, When this|
 [B,D]2 [B,G][DB] [^CB]2 [CA][CE] | [CA]6 [B,D][B,G] | [DB]2 [DB][Ec] [DB]2 [DB][=Fd] | %6
w: low- ly and meek Naz- a-|rene; And His|won- der- ful pow’r is the|
w: ev- er” might call on His|name! He was|a- ble to save, He was|
w: life and its tri- als are|o’er; When we’re|washed and re- deemed and made|
 [Ec]2 [Ec][Ec] [EG]2 [EG][EA] | [DB] [DB]2 [Dc] [DB]2 [CA]2 | [B,G]6 ||"^Refrain" [DB][Dc] | %10
w: same now as then— For He|washed me and made me|clean.||
w: won- drous- ly kind, And to-|day He is just the|same.|Oh, the|
w: free from our sin, We shall|rest on that heav’n- ly|shore.||
 [Gd]>[Gd] [Gd][Gd] ed[DB][DA] | [EG]>[EG] [EG][EG] AG[DF][CE] | %12
w: ||
w: won- drous sav- ing pow- er, Oh, the|mar- velous sav- ing pow- er, Of the|
w: ||
 [B,D]>[B,D] [B,G][DB] [^CB]2 [CA][CE] | [DA]6 [DB][Dc] | [Gd]>[Gd] [Gd][Gd] (ed)[DB][DA] | %15
w: |||
w: ev- er- last- ing Prince, Sav- ior,|King; For He|washed me in the flood * Of his|
w: |||
 [EG]>[EG] [EG][EG] (AG)[DF][CE] | [B,D] [DB]2 [Dc] [DB]2 [CA]2 | [B,G]6 |] %18
w: |||
w: pre- cious, sav- ing blood, * And for-|ev- er His praise I’ll|sing.|
w: |||
V:2
 x2 | x8 | x8 | x8 | x8 | x8 | x8 | x8 | x6 || x2 | x4 G2 x2 | x4 E2 x2 | x8 | x8 | x4 G2 x2 | %15
 x4 E2 x2 | x8 | x6 |] %18
V:3
 [G,,G,][G,,G,] | [G,,G,]2 [G,,G,][G,,G,] [G,,G,]2 [G,,G,][B,,G,] | %2
 [C,C]2 [C,C][C,C] [C,C]2 [C,C][C,G,] | [G,,G,]2 [G,,G,][G,,G,] [E,G,]2 [A,,G,][A,,G,A,] | %4
 [D,F,]6 [G,,G,][G,,G,] | [G,,G,]2 [G,,G,][G,,G,] [G,,G,]2 [G,,G,][B,,G,] | %6
 [C,G,]2 [C,G,][C,G,] [C,C]2 [C,C][C,G,] | [D,G,] [D,G,]2 [D,A,] [D,G,]2 [D,F,]2 | [G,,G,]6 || %9
 G,[G,A,] | [G,B,]>[G,B,] [G,B,][G,B,] CB,G,[B,,G,] | [C,C]>[C,C] [C,C][C,C] [C,C]2 [C,C][C,G,] | %12
 [G,,G,]>[G,,G,] [G,,G,][G,,G,] [E,G,]2 [A,,G,][A,,G,A,] | [D,F,]6 G,[G,A,] | %14
 [G,B,]>[G,B,] [G,B,][G,B,] (CB,)G,[B,,G,] | [C,C]>[C,C] [C,C][C,C] [C,C]2 [C,C][C,G,] | %16
 [D,G,] [D,G,]2 [D,A,] [D,G,]2 [D,F,]2 | [G,,G,]6 |] %18
V:4
 x2 | x8 | x8 | x8 | x8 | x8 | x8 | x8 | x6 || G, x | x4 G,2 G, x | x8 | x8 | x6 G, x | %14
 x4 G,2 G, x | x8 | x8 | x6 |] %18

